X:1
T:Main
M:4/4
Q:1/4=100
K:C 
[A,CE]A,A,A, & e2cz/e/ | [G,B,D]B,B,G, & G2dd   | E,E,E,E, & zzg/g/z       | CF,F,F, & F/zF/A/zz/|
[A,CE]A,A,A, & c2ee/A/ | [G,B,D]B,B,G, & BBzz/d/| E,E,E,E, & zz/e/z/g/z/g/ | CF,F,F, & f/f/fCz/A/|
[A,CE]A,A,A, & e2cz/e/ | [G,B,D]B,B,G, & d/z/dGz| E,E,E,E, & zz/e/e/zz/    | CF,F,F, & f2Az/F/   |
[A,CE]ECE    & c/zc/Ae | [G,B,D]B,B,G, & B/zB/G2| [E,G,G,G,]4 & G/G/zE2    | E,/G,/[CEG]3



[A,CE]4 & EA,A,A, & e2cz/e/ | [G,B,D]4 & G,B,B,G, & G2dd   | [E,G,B,]4 & E,E,E,E, & zzg/g/z       | [CF,A,]4 & CF,F,F, & F/zF/A/zz/|
[A,CE]4 & EA,A,A, & c2ee/A/ | [G,B,D]4 & G,B,B,G, & BBzz/d/| [E,G,B,]4 & E,E,E,E, & zz/ez/g/z/g/  | [CF,A,]4 & CF,F,F, |
[A,CE]4 & EA,A,A, & e2cz/e/ | [G,B,D]4 & G,B,B,G, & d/z/dGz| [E,G,B,]4 & E,E,E,E, & zz/e/e/zz/    | [CF,A,]4 & CF,F,F, |

[A,CE]4 & EA,A,A,   | [G,B,D]4 & G,B,B,G, | [E,G,B,]4 & E,E,E,E, & zz/e/e/zz/    | [CF,A,]4 & CF,F,F, |
[A,CE]4 & EA,A,A,   | [G,B,D]4 & G,B,B,G, | [E,G,B,]4 & E,E,E,E, & zz/e/e/z/e/z/ | [CF,A,]4 & CF,F,F, |
[A,CE]4 & EA,A,A,   | [G,B,D]4 & G,B,B,G, | [E,G,B,]4 & E,E,E,E, & zze/e/g/g/    | [CF,A,]4 & CF,F,F, |
[A,CE]4 & EA,A,A,   | [G,B,D]4 & G,B,B,G, | [E,G,B,]4 & E,E,E,E, & zze/z/e/g/    | [CF,A,]4 & CF,F,F, |
[A,CE]4 & EA,A,A,   | [G,B,D]4 & G,B,B,G, | [E,G,B,]4 & E,E,E,E, & zz/e/e/e/z/g/ | [CF,A,]4 & CF,F,F, |
[A,CE]4 & EA,A,A,   | [G,B,D]4 & G,B,B,G, | [E,G,B,]4 & E,E,E,E, & zz/e/e/z/e/z/ | [CF,A,]4 & CF,F,F, |
[A,CE]4 & EA,A,A,   | [G,B,D]4 & G,B,B,G, | [E,G,B,]4 & E,E,E,E, & zz/e/e/z/g/z/ | [CF,A,]4 & CF,F,F, |
[A,CE]4 & EA,A,A,   | [G,B,D]4 & G,B,B,G, | [E,G,B,]4 & E,E,E,E, & zz/e/e/zz/    | [CF,A,]4 & CF,F,F, |
[A,CE]4 & EA,A,A,   | [G,B,D]4 & G,B,B,G, | [E,G,B,]4 & E,E,E,E, & zz/e/z/g/z/e/ | [CF,A,]4 & CF,F,F, |
[A,CE]4 & EA,A,A,   | [G,B,D]4 & G,B,B,G, | [E,G,B,]4 & E,E,E,E, & zze/z/g/e/    | [CF,A,]4 & CF,F,F, |
[A,CE]4 & EA,A,A,   | [G,B,D]4 & G,B,B,G, | [E,G,B,]4 & E,E,E,E, & zzz/e/z/e/    | [CF,A,]4 & CF,F,F, |


[A,CE]4 & A,A,CC & a/c/cae | [G,B,D]4 & G,G,B,D & g/g/bd2 | [E,G,B,]4 & E,E,E,E, | [CF,A,]4 & F,CA,F, :|